packages/kaspersky-hexa-ui-icons/src/iconsSVGs/16/ResponseCancelIsolateHost.svg

<svg width="16" height="16" viewBox="0 0 16 16" fill="none" xmlns="http://www.w3.org/2000/svg">
<path fill-rule="evenodd" clip-rule="evenodd" d="M7.31839 1.34963C7.57408 1.09765 7.98562 1.10066 8.2376 1.35635L10.8662 4.02371H11.6123C12.5236 4.02371 13.2623 4.76244 13.2623 5.67371V6.39649H14.4002C14.7592 6.39649 15.0502 6.6875 15.0502 7.04649V9.51198C15.0502 9.87096 14.7592 10.162 14.4002 10.162H5.87937C5.52039 10.162 5.22937 9.87096 5.22937 9.51198V7.74273H4.83971C3.40956 7.74273 2.2502 8.9021 2.2502 10.3323C2.2502 11.7624 3.40956 12.9218 4.83971 12.9218H9.36505C9.72404 12.9218 10.0151 13.2128 10.0151 13.5718C10.0151 13.9308 9.72404 14.2218 9.36505 14.2218H4.83971C2.69159 14.2218 0.950195 12.4804 0.950195 10.3323C0.950195 8.18413 2.69159 6.44273 4.83971 6.44273H5.22937V4.67371C5.22937 4.31473 5.52039 4.02371 5.87937 4.02371H9.04106L7.31167 2.26884C7.05969 2.01315 7.0627 1.60161 7.31839 1.34963ZM6.52937 5.32371V8.86198H13.7502V7.69649H12.6123C12.2533 7.69649 11.9623 7.40547 11.9623 7.04649V5.67371C11.9623 5.48041 11.8056 5.32371 11.6123 5.32371H6.52937Z" fill="black"/>
</svg>

<svg xmlns="http://www.w3.org/2000/svg" width="16" height="16" fill="none" viewBox="0 0 16 16"><path fill="#000" fill-rule="evenodd" d="M7.3184 1.3496a.65.65 0 0 1 .9192.0068l2.6286 2.6673h.7461c.9113 0 1.65.7387 1.65 1.65v.7228h1.1379a.65.65 0 0 1 .65.65V9.512a.65.65 0 0 1-.65.65H5.8794a.65.65 0 0 1-.65-.65V7.7427h-.3897c-1.4301 0-2.5895 1.1594-2.5895 2.5896s1.1594 2.5895 2.5895 2.5895h4.5254a.65.65 0 1 1 0 1.3H4.8397c-2.1481 0-3.8895-1.7414-3.8895-3.8895 0-2.1482 1.7414-3.8896 3.8895-3.8896h.3897v-1.769a.65.65 0 0 1 .65-.65H9.041L7.3117 2.2688a.65.65 0 0 1 .0067-.9192m-.789 3.9741V8.862h7.2208V7.6965h-1.1379a.65.65 0 0 1-.65-.65V5.6737a.35.35 0 0 0-.35-.35z"/></svg>
